Hatter-kde/status/24/notification-disabled-70-symbolic.svg

<?xml version="1.0" encoding="UTF-8" standalone="no"?>
<svg
   xmlns:dc="http://purl.org/dc/elements/1.1/"
   xmlns:cc="http://creativecommons.org/ns#"
   xmlns:rdf="http://www.w3.org/1999/02/22-rdf-syntax-ns#"
   xmlns:svg="http://www.w3.org/2000/svg"
   xmlns="http://www.w3.org/2000/svg"
   height="24"
   width="24"
   version="1.1"
   id="svg6">
  <metadata
     id="metadata12">
    <rdf:RDF>
      <cc:Work
         rdf:about="">
        <dc:format>image/svg+xml</dc:format>
        <dc:type
           rdf:resource="http://purl.org/dc/dcmitype/StillImage" />
        <dc:title />
      </cc:Work>
    </rdf:RDF>
  </metadata>
  <defs
     id="defs10" />
  <path
     id="path2-6"
     d="M 6.3515625,4.7363281 5.4121094,5.6777344 14.892155,15.158074 v 0 H 13.591373 L 8.0332031,9.5996094 C 8.0198271,9.732866 8.0001481,9.8650714 8,10 c 0,0 -1.563e-4,5.000094 -1.6601562,5.621094 -0.016,0.011 -0.022063,0.03097 -0.039063,0.04297 -0.063381,0.04923 -0.1181601,0.108631 -0.1621093,0.175782 -0.018,0.027 -0.038734,0.04817 -0.052734,0.07617 C 6.0313172,16.018995 6.0018673,16.133447 6,16.25 6,16.363636 6.335,17 6.75,17 h 10.5 c 0.416,0 0.75,-0.334 0.75,-0.75 -0.0019,-0.116553 -0.03132,-0.231005 -0.08594,-0.333984 -0.014,-0.028 -0.03573,-0.05017 -0.05273,-0.07617 -0.04393,-0.06716 -0.09872,-0.126563 -0.162109,-0.175782 -0.016,-0.012 -0.02206,-0.03197 -0.03906,-0.04297 C 16.000151,15.001094 16,10 16,10 15.998,8.177 14.765,6.4647656 13,6.0097656 V 6 C 13,5.4477153 12.552285,5 12,5 11.447715,5 11,5.4477153 11,6 V 6.00977 C 10.180696,6.2215585 9.4837589,6.7100393 8.9648438,7.3496094 Z M 10.066406,18 c 0.227729,0.881993 1.022677,1.49868 1.933594,1.5 0.911645,-4.31e-4 1.707636,-0.617304 1.935547,-1.5 z"
     style="overflow:visible;opacity:1;isolation:auto;mix-blend-mode:normal;fill:#f2f2f2;marker:none" />
</svg>

<?xml version="1.0" encoding="UTF-8"?>
<svg id="svg6" width="24" height="24" version="1.1" xmlns="http://www.w3.org/2000/svg" xmlns:cc="http://creativecommons.org/ns#" xmlns:dc="http://purl.org/dc/elements/1.1/" xmlns:rdf="http://www.w3.org/1999/02/22-rdf-syntax-ns#">
 <metadata id="metadata12">
  <rdf:RDF>
   <cc:Work rdf:about="">
    <dc:format>image/svg+xml</dc:format>
    <dc:type rdf:resource="http://purl.org/dc/dcmitype/StillImage"/>
    <dc:title/>
   </cc:Work>
  </rdf:RDF>
 </metadata>
 <path id="path2-6" d="m6.3516 4.7363-0.93945 0.94141 9.48 9.4803h-1.3008l-5.5582-5.5585c-0.013376 0.13326-0.033055 0.26546-0.033203 0.40039 0 0-1.563e-4 5.0001-1.6602 5.6211-0.016 0.011-0.022063 0.03097-0.039063 0.04297-0.063381 0.04923-0.11816 0.10863-0.16211 0.17578-0.018 0.027-0.038734 0.04817-0.052734 0.07617-0.05462 0.10298-0.08407 0.21743-0.085938 0.33398 0 0.11364 0.335 0.75 0.75 0.75h10.5c0.416 0 0.75-0.334 0.75-0.75-0.0019-0.11655-0.03132-0.231-0.08594-0.33398-0.014-0.028-0.03573-0.05017-0.05273-0.07617-0.04393-0.06716-0.09872-0.12656-0.16211-0.17578-0.016-0.012-0.02206-0.03197-0.03906-0.04297-1.66-0.62-1.6602-5.6211-1.6602-5.6211-2e-3 -1.823-1.235-3.5352-3-3.9902v-0.0097656c0-0.55228-0.44772-1-1-1s-1 0.44772-1 1v0.00977c-0.8193 0.21179-1.5162 0.70027-2.0352 1.3398zm3.7148 13.264c0.22773 0.88199 1.0227 1.4987 1.9336 1.5 0.91164-4.31e-4 1.7076-0.6173 1.9355-1.5z" color="#bebebe" fill="#fff" style="isolation:auto;mix-blend-mode:normal"/>
</svg>
